public/avatar/item0/72.svg

<svg xmlns:xlink="http://www.w3.org/1999/xlink" height="58.65" width="49.15" xmlns="http://www.w3.org/2000/svg"><use height="14.2" transform="translate(8.1 23.55)" width="31.65" xlink:href="#a"/><defs><g id="a" fill-rule="evenodd"><path d="m14.45 15.35.3.2-.3.25v-.45" fill="#fff" transform="translate(16 -5.45)"/><path d="M5.6 7.15q5.85.6 7.75 2.15 1.3 1.05 1.9 3.2.65 2.15.25 4-.55 2.4-2.45 2.85-2.95.8-7.9-.45l-2-.6q-2.2-.8-3.35-.8t-3.35.8l-2 .6-7.85.45q-1.9-.45-2.45-2.8-.4-1.85.25-4.05.65-2.15 1.9-3.2 2.95-2.45 13.45-2.45h.05l5.8.3" transform="translate(16 -5.45)"/><path d="M5.9 5.75q6.2.6 8.4 2.05.5.35.5.8l-.15.5-1.1-.05q-2.75-2.1-13.8-2.2Q-11.1 6.95-13.9 9q-.5.45-.9.3l-.4-.3q-.25-.55.6-1.2 3.5-2.35 14.35-2.35h.05l6.1.3" transform="translate(16 -5.45)"/><path d="M13.05 9.6q2.05 1.65 2.2 5.15.1 3.6-2.3 4.2l-7.7-.45Q1.7 17.1-.2 17.1l-5.45 1.4q-4.9 1.2-7.65.45-2.4-.6-2.25-4.2.1-3.5 2.15-5.15 2.9-2.35 13.15-2.35h.05q10.35 0 13.25 2.35" fill="#fdf200" transform="translate(16 -5.45)"/><path d="M12.7 10.05q2.7 2.25 1.85 6.25-.45 1.75-1.75 2.1l-7.4-.45-1.9-.6q-2.2-.8-3.7-.85-1.6.05-3.7.85l-1.9.6q-4.7 1.2-7.35.45-1.4-.35-1.7-2.1-.35-1.6.15-3.5.55-1.85 1.65-2.75 2.65-2.1 12.8-2.25h.05q10.25.15 12.9 2.25" fill="#1c1e1c" transform="translate(16 -5.45)"/><path d="M-3.95 6.4h.75v1.45h-.75V6.4m7.3 0h.8v1.45h-.8V6.4m7.3.75h.8V8.9h-.8V7.15m-21.95-.2h.8V8.9h-.8V6.95" fill="#fdf200" transform="translate(16 -5.45)"/><path d="M14 8.15q.55.4.35.65l-.55-.1q-2.95-2.25-14-2.25h-.05q-10.95 0-13.9 2.25l-.65.1.45-.65Q-11 5.9-.25 5.9h.05q10.85 0 14.2 2.25" fill="#fdf200" transform="translate(16 -5.45)"/><path d="M-11.3 8v.15l-.85.3-.1-.2.95-.25m3.65-.65-2.85.55v-.1l2.85-.45m1.8-.2.2.4-4.85.8V7.9l4.45-.75h.2m2.75-.2 1.75-.05.2.35-1.8.1-.15-.4m-8.2 12.25 1.6-.05.2.4-1.6.05-.2-.4m-2.65-9.05-.9 1.55-.25-.5 1-1.45.15.4m15.5 7.2 2.25.7.2.5-.85-.25-1.35-.45-.25-.5m-7.2 1.15 5.05-1.4.2.4q-1.2.05-3.15.8l-2 .6-.3.05-.2-.35.4-.1" fill="#2d3030" transform="translate(16 -5.45)"/><path d="M-11.3 8.15v.45l-.65.25-.2-.4.85-.3m-3.9.85q-.2-.45.3-.95l.2.45-.1.3.25.1.2.4h-.45l-.4-.3m3.9-2.05-1.5.45-.2-.35q2.3-.8 6.4-1.25l.25.4-4.9.75h-.05m9.5-1.05-1.75.1-.2-.45L-2 5.5l.2.4m-4.25 1.25-4.45.65v-.45l4.4-.6.25.4h-.2m2.9-.25-.05-.15v-.2l1.65-.1.2.4-1.8.05" fill="#2d3030" transform="translate(16 -5.45)"/><path d="m-5.65 7.55.3.55q-4 .35-6.3 1.2l-.3-.45.65-.25v.3h.8v-.55l4.85-.8m6.9 9.15q.85.15 2.2.65l.35.7-2.25-.7-.3-.65m-12.8 1.9h1.6l.25.55-1.6.05-.25-.6m7.65-1.25 3-.8.3.55-5.05 1.4-.4.1-.35-.5 2.5-.75m1.2-9.45-.25-.55 1.8-.1.25.6-1.8.05m-10.95 2.85-.9 1.65-.3-.7.9-1.55.3.6" fill="#fdff4c" transform="translate(16 -5.45)"/><path d="M3.45 17.35q-1.35-.5-2.2-.65L-2.7 7.9l1.8-.05 4.35 9.5m-8.8-9.25 4.45 8.45-3 .8-2.5.75-5.25-8.8q2.3-.85 6.3-1.2m-9.2 4.3.9-1.65 3.7 7.85h-1.6l-3-6.2" fill="#4e514e" transform="translate(16 -5.45)"/><path d="M-10.5 7.8v.1l-.8.25V8l.8-.2" fill="#2d3030" transform="translate(16 -5.45)"/><path d="m-11.3 8.15.8-.25v.45l-.8.25v-.45m.8-.35-.8.2v-.45l.8-.2v.45" fill="#fdff4c" transform="translate(16 -5.45)"/><path d="M-11.3 8.9v-.3l.8-.25v.55h-.8" fill="#fdff4c" transform="translate(16 -5.45)"/><path d="m-14.8 8.8.1-.3.15.4-.25-.1" fill="#2d3030" transform="translate(16 -5.45)"/><path d="M-10.5 7.35v-.4h-.75l4.9-.75.25.55-4.4.6" fill="#fdff4c" transform="translate(16 -5.45)"/><path d="M-3.2 6.55h-.1l-.05-.15h.15v.15" fill="#2d3030" transform="translate(16 -5.45)"/><path d="m-13.9 11.5.6-.35.45.1.1.8.3.15.1.25-.85-.15q.15.85 0 .85l-.7-1.65" fill="#fdff2f" transform="translate(16 -5.45)"/><path d="m-12.2 11.35.55-.3q.55 0 .3.7l-.15-.2q-.1.45-.35.55-.7.25-.35-.75" fill="#fdff2f" transform="translate(16 -5.45)"/><path d="m-11.45 10.9.55.05q-.25-1.05.25-.55 0 1.55-.3 1.55 0-.75-.15-.8l-.35-.25m1.1-1.55q.3-.1.75.65.35-.1.35.5l-.7.35-.4-1.5" fill="#fdff2f" transform="translate(16 -5.45)"/><path d="M-9.05 9.75q.4-.35.55.1.15.45-.2.55l-.45-.15q-.15-.25.1-.5m.85.3-.2-.65q.25-.05.35.2l.35-.35 1.1.05q.15.3-.25.4l-.8-.1-.55.45" fill="#fdff2f" transform="translate(16 -5.45)"/></g></defs></svg>

<?xml version="1.0" encoding="UTF-8" standalone="no"?>
<svg xmlns:xlink="http://www.w3.org/1999/xlink" height="58.65px" width="49.15px" xmlns="http://www.w3.org/2000/svg">
  <g transform="matrix(1.0, 0.0, 0.0, 1.0, 24.1, 18.1)">
    <use height="14.2" transform="matrix(1.0, 0.0, 0.0, 1.0, -16.0, 5.45)" width="31.65" xlink:href="#shape0"/>
  </g>
  <defs>
    <g id="shape0" transform="matrix(1.0, 0.0, 0.0, 1.0, 16.0, -5.45)">
      <path d="M14.45 15.35 L14.75 15.55 14.45 15.8 14.45 15.35" fill="#ffffff" fill-rule="evenodd" stroke="none"/>
      <path d="M5.6 7.15 Q11.45 7.75 13.35 9.3 14.65 10.35 15.25 12.5 15.9 14.65 15.5 16.5 14.95 18.9 13.05 19.35 10.1 20.15 5.15 18.9 L3.15 18.3 Q0.95 17.5 -0.2 17.5 -1.35 17.5 -3.55 18.3 L-5.55 18.9 -13.4 19.35 Q-15.3 18.9 -15.85 16.55 -16.25 14.7 -15.6 12.5 -14.95 10.35 -13.7 9.3 -10.75 6.85 -0.25 6.85 L-0.2 6.85 5.6 7.15" fill="#000000" fill-rule="evenodd" stroke="none"/>
      <path d="M5.9 5.75 Q12.1 6.35 14.3 7.8 14.8 8.15 14.8 8.6 L14.65 9.1 13.55 9.05 Q10.8 6.95 -0.25 6.85 -11.1 6.95 -13.9 9.0 -14.4 9.45 -14.8 9.3 L-15.2 9.0 Q-15.45 8.45 -14.6 7.8 -11.1 5.45 -0.25 5.45 L-0.2 5.45 5.9 5.75" fill="#000000" fill-rule="evenodd" stroke="none"/>
      <path d="M13.05 9.6 Q15.1 11.25 15.25 14.75 15.35 18.35 12.95 18.95 L5.25 18.5 Q1.7 17.1 -0.2 17.1 L-5.65 18.5 Q-10.55 19.7 -13.3 18.95 -15.7 18.35 -15.55 14.75 -15.45 11.25 -13.4 9.6 -10.5 7.25 -0.25 7.25 L-0.2 7.25 Q10.15 7.25 13.05 9.6" fill="#fdf200" fill-rule="evenodd" stroke="none"/>
      <path d="M12.7 10.05 Q15.4 12.3 14.55 16.3 14.1 18.05 12.8 18.4 L5.4 17.95 3.5 17.35 Q1.3 16.55 -0.2 16.5 -1.8 16.55 -3.9 17.35 L-5.8 17.95 Q-10.5 19.15 -13.15 18.4 -14.55 18.05 -14.85 16.3 -15.2 14.7 -14.7 12.8 -14.15 10.95 -13.05 10.05 -10.4 7.95 -0.25 7.8 L-0.2 7.8 Q10.05 7.95 12.7 10.05" fill="#1c1e1c" fill-rule="evenodd" stroke="none"/>
      <path d="M-3.95 6.4 L-3.2 6.4 -3.2 7.85 -3.95 7.85 -3.95 6.4" fill="#fdf200" fill-rule="evenodd" stroke="none"/>
      <path d="M3.35 6.4 L4.15 6.4 4.15 7.85 3.35 7.85 3.35 6.4" fill="#fdf200" fill-rule="evenodd" stroke="none"/>
      <path d="M10.65 7.15 L11.45 7.15 11.45 8.9 10.65 8.9 10.65 7.15" fill="#fdf200" fill-rule="evenodd" stroke="none"/>
      <path d="M-11.3 6.95 L-10.5 6.95 -10.5 8.9 -11.3 8.9 -11.3 6.95" fill="#fdf200" fill-rule="evenodd" stroke="none"/>
      <path d="M14.0 8.15 Q14.55 8.55 14.35 8.8 L13.8 8.7 Q10.85 6.45 -0.2 6.45 L-0.25 6.45 Q-11.2 6.45 -14.15 8.7 L-14.8 8.8 -14.35 8.15 Q-11.0 5.9 -0.25 5.9 L-0.2 5.9 Q10.65 5.9 14.0 8.15" fill="#fdf200" fill-rule="evenodd" stroke="none"/>
      <path d="M-11.3 8.0 L-11.3 8.15 -12.15 8.45 -12.25 8.25 -11.3 8.0" fill="#2d3030" fill-rule="evenodd" stroke="none"/>
      <path d="M-7.65 7.35 L-10.5 7.9 -10.5 7.8 -7.65 7.35" fill="#2d3030" fill-rule="evenodd" stroke="none"/>
      <path d="M-5.85 7.15 L-5.65 7.55 -10.5 8.35 -10.5 7.9 -6.05 7.15 -5.85 7.15" fill="#2d3030" fill-rule="evenodd" stroke="none"/>
      <path d="M-3.1 6.95 L-1.35 6.9 -1.15 7.25 -2.95 7.35 -3.1 6.95" fill="#2d3030" fill-rule="evenodd" stroke="none"/>
      <path d="M-11.3 19.2 L-9.7 19.15 -9.5 19.55 -11.1 19.6 -11.3 19.2" fill="#2d3030" fill-rule="evenodd" stroke="none"/>
      <path d="M-13.95 10.15 L-14.85 11.7 -15.1 11.2 -14.1 9.75 -13.95 10.15" fill="#2d3030" fill-rule="evenodd" stroke="none"/>
      <path d="M1.55 17.35 L3.8 18.05 4.0 18.55 3.15 18.3 1.8 17.85 1.55 17.35" fill="#2d3030" fill-rule="evenodd" stroke="none"/>
      <path d="M-5.65 18.5 L-0.6 17.1 -0.4 17.5 Q-1.6 17.55 -3.55 18.3 L-5.55 18.9 -5.85 18.95 -6.05 18.6 -5.65 18.5" fill="#2d3030" fill-rule="evenodd" stroke="none"/>
      <path d="M-11.3 8.15 L-11.3 8.6 -11.95 8.85 -12.15 8.45 -11.3 8.15" fill="#2d3030" fill-rule="evenodd" stroke="none"/>
      <path d="M-15.2 9.0 Q-15.4 8.55 -14.9 8.05 L-14.7 8.5 -14.8 8.8 -14.55 8.9 -14.35 9.3 -14.8 9.3 -15.2 9.0" fill="#2d3030" fill-rule="evenodd" stroke="none"/>
      <path d="M-11.3 6.95 L-12.8 7.4 -13.0 7.05 Q-10.7 6.25 -6.6 5.8 L-6.35 6.2 -11.25 6.95 -11.3 6.95" fill="#2d3030" fill-rule="evenodd" stroke="none"/>
      <path d="M-1.8 5.9 L-3.55 6.0 -3.75 5.55 -2.0 5.5 -1.8 5.9" fill="#2d3030" fill-rule="evenodd" stroke="none"/>
      <path d="M-6.05 7.15 L-10.5 7.8 -10.5 7.35 -6.1 6.75 -5.85 7.15 -6.05 7.15" fill="#2d3030" fill-rule="evenodd" stroke="none"/>
      <path d="M-3.15 6.9 L-3.2 6.75 -3.2 6.55 -1.55 6.45 -1.35 6.85 -3.15 6.9" fill="#2d3030" fill-rule="evenodd" stroke="none"/>
      <path d="M-5.65 7.55 L-5.35 8.1 Q-9.35 8.45 -11.65 9.3 L-11.95 8.85 -11.3 8.6 -11.3 8.9 -10.5 8.9 -10.5 8.35 -5.65 7.55" fill="#fdff4c" fill-rule="evenodd" stroke="none"/>
      <path d="M1.25 16.7 Q2.1 16.85 3.45 17.35 L3.8 18.05 1.55 17.35 1.25 16.7" fill="#fdff4c" fill-rule="evenodd" stroke="none"/>
      <path d="M-11.55 18.6 L-9.95 18.6 -9.7 19.15 -11.3 19.2 -11.55 18.6" fill="#fdff4c" fill-rule="evenodd" stroke="none"/>
      <path d="M-3.9 17.35 L-0.9 16.55 -0.6 17.1 -5.65 18.5 -6.05 18.6 -6.4 18.1 -3.9 17.35" fill="#fdff4c" fill-rule="evenodd" stroke="none"/>
      <path d="M-2.7 7.9 L-2.95 7.35 -1.15 7.25 -0.9 7.85 -2.7 7.9" fill="#fdff4c" fill-rule="evenodd" stroke="none"/>
      <path d="M-13.65 10.75 L-14.55 12.4 -14.85 11.7 -13.95 10.15 -13.65 10.75" fill="#fdff4c" fill-rule="evenodd" stroke="none"/>
      <path d="M3.45 17.35 Q2.1 16.85 1.25 16.7 L-2.7 7.9 -0.9 7.85 3.45 17.35" fill="#4e514e" fill-rule="evenodd" stroke="none"/>
      <path d="M-5.35 8.1 L-0.9 16.55 -3.9 17.35 -6.4 18.1 -11.65 9.3 Q-9.35 8.45 -5.35 8.1" fill="#4e514e" fill-rule="evenodd" stroke="none"/>
      <path d="M-14.55 12.4 L-13.65 10.75 -9.95 18.6 -11.55 18.6 -14.55 12.4" fill="#4e514e" fill-rule="evenodd" stroke="none"/>
      <path d="M-10.5 7.8 L-10.5 7.9 -11.3 8.15 -11.3 8.0 -10.5 7.8" fill="#2d3030" fill-rule="evenodd" stroke="none"/>
      <path d="M-11.3 8.15 L-10.5 7.9 -10.5 8.35 -11.3 8.6 -11.3 8.15" fill="#fdff4c" fill-rule="evenodd" stroke="none"/>
      <path d="M-10.5 7.8 L-11.3 8.0 -11.3 7.55 -10.5 7.35 -10.5 7.8" fill="#fdff4c" fill-rule="evenodd" stroke="none"/>
      <path d="M-11.3 8.9 L-11.3 8.6 -10.5 8.35 -10.5 8.9 -11.3 8.9" fill="#fdff4c" fill-rule="evenodd" stroke="none"/>
      <path d="M-14.8 8.8 L-14.7 8.5 -14.55 8.9 -14.8 8.8" fill="#2d3030" fill-rule="evenodd" stroke="none"/>
      <path d="M-10.5 7.35 L-10.5 6.95 -11.25 6.95 -6.35 6.2 -6.1 6.75 -10.5 7.35" fill="#fdff4c" fill-rule="evenodd" stroke="none"/>
      <path d="M-3.2 6.55 L-3.3 6.55 -3.35 6.4 -3.2 6.4 -3.2 6.55" fill="#2d3030" fill-rule="evenodd" stroke="none"/>
      <path d="M-13.9 11.5 L-13.3 11.15 -12.85 11.25 -12.75 12.05 -12.45 12.2 -12.35 12.45 -13.2 12.3 Q-13.05 13.15 -13.2 13.15 L-13.9 11.5" fill="#fdff2f" fill-rule="evenodd" stroke="none"/>
      <path d="M-12.2 11.35 L-11.65 11.05 Q-11.1 11.05 -11.35 11.75 L-11.5 11.55 Q-11.6 12.0 -11.85 12.1 -12.55 12.35 -12.2 11.35" fill="#fdff2f" fill-rule="evenodd" stroke="none"/>
      <path d="M-11.45 10.9 L-10.9 10.95 Q-11.15 9.9 -10.65 10.4 -10.65 11.95 -10.95 11.95 -10.95 11.2 -11.1 11.15 L-11.45 10.9" fill="#fdff2f" fill-rule="evenodd" stroke="none"/>
      <path d="M-10.35 9.35 Q-10.05 9.25 -9.6 10.0 -9.25 9.9 -9.25 10.5 L-9.95 10.85 -10.35 9.35" fill="#fdff2f" fill-rule="evenodd" stroke="none"/>
      <path d="M-9.05 9.75 Q-8.65 9.4 -8.5 9.85 -8.35 10.3 -8.7 10.4 L-9.15 10.25 Q-9.3 10.0 -9.05 9.75" fill="#fdff2f" fill-rule="evenodd" stroke="none"/>
      <path d="M-8.2 10.05 L-8.4 9.4 Q-8.15 9.35 -8.05 9.6 L-7.7 9.25 -6.6 9.3 Q-6.45 9.6 -6.85 9.7 L-7.65 9.6 -8.2 10.05" fill="#fdff2f" fill-rule="evenodd" stroke="none"/>
    </g>
  </defs>
</svg>
